X: 41784
T: Veganites
R: reel
M: 4/4
K: Bminor
|:ABBB dBed|efff edBd|ABBB d2dB|e2ed efed|
ABBB dBed|efff edef|afff e2de|e2de edBA:|
efff afe2|gfff edBA|efff afe2|afed edBd|
ABBB dBBB|efed edBd|ABBB dBed|f8|
a2fe f2ed|e2dB dBA2|ABBB dBed|efff edBd|
ABBB dBBB|efed edBd|ABBB dBed|f8||

